images/icons/cake.svg

<svg width="49" height="52" viewBox="0 0 49 52" fill="none" xmlns="http://www.w3.org/2000/svg">
<g clip-path="url(#clip0)">
<path d="M17.8552 31.3522C17.8429 31.2872 17.8249 31.2232 17.8013 31.1623C17.7776 31.1003 17.7483 31.0414 17.7143 30.9866C17.6793 30.9307 17.6396 30.8789 17.5961 30.8322C17.3766 30.5966 17.0503 30.4879 16.7429 30.5549C16.6824 30.5681 16.6228 30.5874 16.5661 30.6128C16.5084 30.6382 16.4535 30.6697 16.4025 30.7063C16.3504 30.7428 16.3022 30.7855 16.2587 30.8322C16.2152 30.8789 16.1755 30.9307 16.1414 30.9866C16.1074 31.0414 16.078 31.1003 16.0544 31.1623C16.0307 31.2232 16.0128 31.2872 16.0005 31.3522C15.9882 31.4172 15.9816 31.4842 15.9816 31.5502C15.9816 31.6163 15.9882 31.6833 16.0005 31.7493C16.0128 31.8133 16.0307 31.8773 16.0544 31.9392C16.078 32.0002 16.1074 32.0591 16.1414 32.1139C16.1755 32.1698 16.2152 32.2216 16.2587 32.2683C16.3022 32.315 16.3504 32.3577 16.4025 32.3952C16.4535 32.4318 16.5084 32.4633 16.5661 32.4887C16.6228 32.5141 16.6824 32.5334 16.7429 32.5466C16.8035 32.5598 16.8659 32.5659 16.9274 32.5659C17.1761 32.5659 17.4201 32.4572 17.5961 32.2683C17.6396 32.2216 17.6793 32.1698 17.7143 32.1139C17.7483 32.0591 17.7776 32.0002 17.8013 31.9392C17.8249 31.8773 17.8429 31.8133 17.8552 31.7493C17.8675 31.6833 17.8732 31.6163 17.8732 31.5502C17.8732 31.4842 17.8675 31.4172 17.8552 31.3522Z" fill="black"/>
<path d="M47.6414 48.8905H45.6822V38.0289V33.575C45.6822 31.8986 44.4122 30.5349 42.8511 30.5349H41.2359V24.3901V20.5167C41.2359 18.8404 39.9659 17.4766 38.4048 17.4766H35.5013V14.5278C36.1502 14.3519 36.7644 13.9927 37.2709 13.4487C38.4353 12.1985 38.7279 10.2933 37.9991 8.70756L35.4036 3.06119C35.2443 2.71456 34.9155 2.49508 34.5555 2.49508C34.1956 2.49508 33.8668 2.71456 33.7074 3.06119L31.112 8.70766C30.3831 10.2932 30.6758 12.1985 31.8401 13.4488C32.3467 13.9928 32.9609 14.352 33.6097 14.5279V17.4767H25.3204V13.1107C25.9693 12.9348 26.5835 12.5756 27.09 12.0316C28.2544 10.7814 28.5469 8.87615 27.8182 7.29046L25.2227 1.64399C25.0634 1.29736 24.7346 1.07788 24.3746 1.07788C24.0147 1.07788 23.6859 1.29736 23.5265 1.64399L20.9311 7.29056C20.2023 8.87615 20.495 10.7814 21.6592 12.0316C22.1658 12.5756 22.78 12.9348 23.4288 13.1107V17.4767H15.1395V14.5311C15.8035 14.3513 16.4124 13.9822 16.9091 13.4488C18.0735 12.1986 18.3661 10.2933 17.6373 8.70766L15.0418 3.06119C14.8825 2.71456 14.5537 2.49508 14.1937 2.49508C13.8338 2.49508 13.505 2.71456 13.3456 3.06119L10.7502 8.70776C10.0214 10.2933 10.3141 12.1986 11.4783 13.4489C11.9751 13.9823 12.584 14.3514 13.2479 14.5312V17.4768H10.3445C8.78338 17.4768 7.51335 18.8405 7.51335 20.5169V24.3905V30.5351H5.89821C4.33707 30.5351 3.06704 31.8988 3.06704 33.5752V38.0292V48.8908H1.10791C0.585545 48.8908 0.162109 49.3454 0.162109 49.9064C0.162109 50.4673 0.585545 50.922 1.10791 50.922H4.01285H44.7364H47.6414C48.1637 50.922 48.5872 50.4673 48.5872 49.9064C48.5872 49.3454 48.1637 48.8905 47.6414 48.8905ZM33.1777 12.0123C32.5868 11.3779 32.4384 10.4112 32.8083 9.60659L34.5556 5.80521L36.303 9.60659C36.6728 10.4112 36.5243 11.3779 35.9336 12.0123C35.8024 12.1532 35.6562 12.268 35.5015 12.3603C34.915 12.7098 34.1964 12.7098 33.6099 12.3603C33.455 12.2681 33.3089 12.1533 33.1777 12.0123ZM22.9968 10.5952C22.406 9.96084 22.2576 8.99407 22.6274 8.18949L24.3746 4.38821L26.122 8.18959C26.4918 8.99417 26.3433 9.96094 25.7526 10.5953C25.6214 10.7362 25.4753 10.851 25.3205 10.9433C24.7341 11.2928 24.0154 11.2928 23.4289 10.9433C23.2741 10.8509 23.128 10.7362 22.9968 10.5952ZM12.8159 12.0123C12.2251 11.3779 12.0767 10.4112 12.4465 9.60659L14.1938 5.80521L15.9412 9.60659C16.311 10.4111 16.1625 11.3778 15.5718 12.0123C15.4406 12.1532 15.2945 12.268 15.1397 12.3603C14.5533 12.7098 13.8346 12.7098 13.2481 12.3603C13.0932 12.2681 12.9471 12.1533 12.8159 12.0123ZM10.3445 19.5078H38.4048C38.923 19.5078 39.3444 19.9604 39.3444 20.5167V23.7054C38.9277 23.846 38.4787 23.9107 37.9489 23.9107C36.5383 23.9107 35.8946 23.4499 35.0797 22.8665C34.1726 22.2171 33.1445 21.4812 31.1612 21.4812C29.1781 21.4812 28.15 22.2171 27.243 22.8665C26.4281 23.4499 25.7844 23.9107 24.374 23.9107C22.9635 23.9107 22.3199 23.4499 21.5051 22.8665C20.598 22.2172 19.5701 21.4812 17.5869 21.4812C15.6038 21.4812 14.5758 22.2172 13.6688 22.8665C12.854 23.4499 12.2104 23.9107 10.8001 23.9107C10.2705 23.9107 9.82168 23.8459 9.40505 23.7055V20.5167H9.40496C9.40496 19.9604 9.8265 19.5078 10.3445 19.5078ZM43.7906 48.8905H4.95865V39.1295C5.76277 39.2883 6.27501 39.6544 6.88175 40.0887C7.78877 40.7381 8.81676 41.474 10.8 41.474C12.7831 41.474 13.8111 40.738 14.7181 40.0887C15.5329 39.5054 16.1765 39.0446 17.5868 39.0446C18.9972 39.0446 19.6409 39.5054 20.4557 40.0887C21.3627 40.7381 22.3907 41.474 24.3739 41.474C26.3571 41.474 27.3851 40.738 28.2921 40.0887C29.107 39.5054 29.7507 39.0446 31.1611 39.0446C32.5717 39.0446 33.2154 39.5054 34.0303 40.0887C34.9374 40.738 35.9654 41.474 37.9488 41.474C39.932 41.474 40.9601 40.738 41.8672 40.0887C42.4741 39.6544 42.9864 39.2882 43.7906 39.1294V48.8905ZM43.7906 37.0748C42.4019 37.2647 41.5685 37.8613 40.818 38.3985C40.0031 38.9819 39.3593 39.4427 37.9488 39.4427C36.5382 39.4427 35.8946 38.9819 35.0796 38.3985C34.1725 37.7492 33.1444 37.0132 31.1611 37.0132C29.178 37.0132 28.1499 37.7492 27.2429 38.3985C26.428 38.9819 25.7844 39.4427 24.3739 39.4427C22.9634 39.4427 22.3198 38.9819 21.505 38.3985C20.598 37.7491 19.57 37.0132 17.5867 37.0132C15.6036 37.0132 14.5757 37.7492 13.6686 38.3985C12.8538 38.9819 12.2102 39.4427 10.7999 39.4427C9.38945 39.4427 8.74583 38.9819 7.93102 38.3985C7.18053 37.8613 6.34727 37.2647 4.95865 37.0748V33.5749C4.95865 33.0186 5.38019 32.566 5.89821 32.566H13.1568C13.6791 32.566 14.1026 32.1113 14.1026 31.5504C14.1026 30.9895 13.6791 30.5348 13.1568 30.5348H9.40496V25.7988C9.84021 25.8944 10.3001 25.942 10.8 25.942C12.7831 25.942 13.8111 25.206 14.7181 24.5567C15.5329 23.9733 16.1765 23.5125 17.5868 23.5125C18.9973 23.5125 19.6409 23.9733 20.4557 24.5567C21.3627 25.206 22.3907 25.942 24.3739 25.942C26.357 25.942 27.3851 25.206 28.2921 24.5567C29.107 23.9733 29.7507 23.5125 31.1611 23.5125C32.5717 23.5125 33.2154 23.9733 34.0303 24.5567C34.9374 25.2061 35.9655 25.942 37.9488 25.942C38.4489 25.942 38.909 25.8943 39.3443 25.7987V30.5349H20.6982C20.1758 30.5349 19.7524 30.9896 19.7524 31.5505C19.7524 32.1114 20.1758 32.5661 20.6982 32.5661H42.8511C43.3692 32.5661 43.7906 33.0188 43.7906 33.575V37.0748Z" fill="black"/>
<path d="M9.3866 46.3672C9.37431 46.3022 9.35634 46.2382 9.33269 46.1773C9.30905 46.1163 9.27973 46.0574 9.24568 46.0016C9.21068 45.9467 9.17191 45.8949 9.12745 45.8472C9.08395 45.8005 9.03571 45.7588 8.98369 45.7213C8.93262 45.6847 8.87776 45.6532 8.82101 45.6278C8.76427 45.6024 8.70468 45.5831 8.64415 45.5699C8.33676 45.5039 8.01046 45.6116 7.79009 45.8472C7.74658 45.8949 7.70686 45.9467 7.67281 46.0016C7.63876 46.0574 7.60944 46.1163 7.5858 46.1773C7.56215 46.2382 7.54418 46.3022 7.53189 46.3672C7.51959 46.4332 7.51392 46.4992 7.51392 46.5663C7.51392 46.6323 7.51959 46.6983 7.53189 46.7643C7.54418 46.8293 7.56215 46.8933 7.5858 46.9542C7.60944 47.0152 7.63876 47.0741 7.67281 47.1299C7.70686 47.1848 7.74658 47.2366 7.79009 47.2843C7.96601 47.4732 8.21003 47.5819 8.45972 47.5819C8.52119 47.5819 8.58267 47.5748 8.64415 47.5616C8.70468 47.5484 8.76427 47.5291 8.82101 47.5037C8.87776 47.4783 8.93262 47.4468 8.98369 47.4102C9.03571 47.3727 9.08395 47.331 9.12745 47.2843C9.17191 47.2366 9.21068 47.1848 9.24568 47.1299C9.27973 47.0741 9.30905 47.0152 9.33269 46.9542C9.35634 46.8933 9.37431 46.8293 9.3866 46.7643C9.3989 46.6983 9.40552 46.6323 9.40552 46.5663C9.40552 46.4992 9.3989 46.4333 9.3866 46.3672Z" fill="black"/>
<path d="M19.552 43.3305C19.5397 43.2655 19.5217 43.2015 19.4981 43.1406C19.4744 43.0796 19.4451 43.0207 19.4111 42.9649C19.3761 42.91 19.3363 42.8572 19.2928 42.8105C19.2493 42.7638 19.2011 42.7211 19.1491 42.6846C19.098 42.648 19.0431 42.6165 18.9864 42.5911C18.9287 42.5657 18.8691 42.5464 18.8095 42.5332C18.6875 42.5068 18.5617 42.5068 18.4397 42.5332C18.3792 42.5464 18.3196 42.5657 18.2628 42.5911C18.2052 42.6165 18.1503 42.648 18.0992 42.6846C18.0472 42.7211 17.999 42.7638 17.9555 42.8105C17.912 42.8572 17.8722 42.91 17.8382 42.9649C17.8041 43.0207 17.7748 43.0796 17.7512 43.1406C17.7275 43.2015 17.7096 43.2655 17.6973 43.3305C17.685 43.3965 17.6783 43.4625 17.6783 43.5285C17.6783 43.5956 17.685 43.6616 17.6973 43.7276C17.7096 43.7926 17.7275 43.8566 17.7512 43.9175C17.7748 43.9785 17.8041 44.0374 17.8382 44.0932C17.8722 44.1481 17.912 44.2009 17.9555 44.2476C17.999 44.2943 18.0472 44.336 18.0992 44.3735C18.1503 44.4101 18.2052 44.4416 18.2628 44.467C18.3196 44.4924 18.3792 44.5117 18.4397 44.5249C18.5002 44.5381 18.5627 44.5452 18.6241 44.5452C18.6856 44.5452 18.748 44.5381 18.8095 44.5249C18.8691 44.5117 18.9287 44.4924 18.9864 44.467C19.0431 44.4416 19.098 44.4101 19.1491 44.3735C19.2011 44.336 19.2493 44.2943 19.2928 44.2476C19.3363 44.2009 19.3761 44.1481 19.4111 44.0932C19.4451 44.0374 19.4744 43.9785 19.4981 43.9175C19.5217 43.8566 19.5397 43.7926 19.552 43.7276C19.5643 43.6616 19.5699 43.5956 19.5699 43.5285C19.5699 43.4625 19.5643 43.3965 19.552 43.3305Z" fill="black"/>
<path d="M30.4865 46.3674C30.4742 46.3024 30.4562 46.2384 30.4325 46.1774C30.4089 46.1165 30.3796 46.0576 30.3455 46.0017C30.3115 45.9469 30.2718 45.8951 30.2283 45.8474C30.1847 45.8006 30.1365 45.759 30.0845 45.7214C30.0334 45.6849 29.9786 45.6534 29.9209 45.628C29.8641 45.6026 29.8045 45.5833 29.744 45.5701C29.622 45.5437 29.4962 45.5437 29.3742 45.5701C29.3146 45.5833 29.255 45.6026 29.1973 45.628C29.1406 45.6534 29.0857 45.6849 29.0346 45.7214C28.9826 45.759 28.9344 45.8006 28.8909 45.8474C28.8474 45.8951 28.8077 45.9469 28.7727 46.0017C28.7386 46.0576 28.7093 46.1165 28.6856 46.1774C28.662 46.2384 28.644 46.3024 28.6317 46.3674C28.6194 46.4334 28.6138 46.4994 28.6138 46.5664C28.6138 46.6324 28.6194 46.6985 28.6317 46.7645C28.644 46.8295 28.662 46.8935 28.6856 46.9544C28.7093 47.0153 28.7386 47.0742 28.7727 47.1301C28.8077 47.1849 28.8474 47.2378 28.8909 47.2845C28.9344 47.3312 28.9826 47.3739 29.0346 47.4104C29.0857 47.447 29.1406 47.4785 29.1973 47.5039C29.255 47.5292 29.3146 47.5485 29.3742 47.5617C29.4357 47.575 29.4981 47.5821 29.5596 47.5821C29.8083 47.5821 30.0523 47.4734 30.2283 47.2845C30.2718 47.2378 30.3115 47.1849 30.3455 47.1301C30.3796 47.0742 30.4089 47.0153 30.4325 46.9544C30.4562 46.8935 30.4742 46.8295 30.4865 46.7645C30.4988 46.6985 30.5054 46.6324 30.5054 46.5664C30.5054 46.4994 30.4988 46.4334 30.4865 46.3674Z" fill="black"/>
<path d="M41.2175 43.9379C41.2052 43.8729 41.1873 43.809 41.1636 43.748C41.14 43.6871 41.1107 43.6272 41.0766 43.5723C41.0426 43.5175 41.0028 43.4647 40.9593 43.4179C40.7825 43.229 40.5394 43.1204 40.2907 43.1204C40.041 43.1204 39.7979 43.229 39.621 43.4179C39.5775 43.4647 39.5387 43.5175 39.5037 43.5723C39.4697 43.6272 39.4404 43.6871 39.4167 43.748C39.3931 43.809 39.3751 43.8729 39.3628 43.9379C39.3505 44.0029 39.3448 44.07 39.3448 44.136C39.3448 44.203 39.3505 44.269 39.3628 44.3351C39.3751 44.4001 39.3931 44.464 39.4167 44.525C39.4404 44.5859 39.4697 44.6448 39.5037 44.6997C39.5387 44.7555 39.5775 44.8073 39.621 44.8551C39.6655 44.9018 39.7137 44.9434 39.7648 44.981C39.8168 45.0176 39.8717 45.049 39.9284 45.0744C39.9852 45.0998 40.0447 45.1191 40.1053 45.1323C40.1668 45.1455 40.2282 45.1516 40.2907 45.1516C40.5394 45.1516 40.7834 45.044 40.9593 44.8551C41.0028 44.8073 41.0426 44.7555 41.0766 44.6997C41.1107 44.6448 41.14 44.5859 41.1636 44.525C41.1873 44.463 41.2052 44.4001 41.2175 44.3351C41.2298 44.269 41.2365 44.203 41.2365 44.136C41.2365 44.0699 41.2298 44.0029 41.2175 43.9379Z" fill="black"/>
<path d="M31.8067 27.3364C31.7944 27.2724 31.7765 27.2084 31.7528 27.1464C31.7292 27.0855 31.6999 27.0266 31.6658 26.9717C31.6308 26.9159 31.5911 26.8641 31.5476 26.8174C31.5041 26.7696 31.4558 26.728 31.4038 26.6904C31.3528 26.6539 31.2979 26.6224 31.2412 26.597C31.1835 26.5716 31.1239 26.5523 31.0643 26.5391C30.9423 26.5127 30.8165 26.5127 30.6945 26.5391C30.6339 26.5523 30.5744 26.5716 30.5176 26.597C30.4599 26.6224 30.4051 26.6539 30.354 26.6904C30.302 26.728 30.2537 26.7696 30.2102 26.8174C30.1667 26.8641 30.127 26.9159 30.0929 26.9717C30.0589 27.0266 30.0296 27.0855 30.0059 27.1464C29.9823 27.2084 29.9643 27.2724 29.952 27.3364C29.9397 27.4024 29.9331 27.4694 29.9331 27.5354C29.9331 27.6014 29.9397 27.6685 29.952 27.7335C29.9643 27.7985 29.9823 27.8624 30.0059 27.9234C30.0296 27.9843 30.0589 28.0442 30.0929 28.0991C30.127 28.1549 30.1667 28.2067 30.2102 28.2535C30.2537 28.3002 30.302 28.3428 30.354 28.3794C30.4051 28.416 30.4599 28.4474 30.5176 28.4728C30.5744 28.4982 30.6339 28.5175 30.6945 28.5307C30.755 28.5439 30.8174 28.551 30.8789 28.551C30.9404 28.551 31.0028 28.5439 31.0643 28.5307C31.1239 28.5175 31.1835 28.4982 31.2412 28.4728C31.2979 28.4474 31.3528 28.416 31.4038 28.3794C31.4558 28.3428 31.5041 28.3002 31.5476 28.2535C31.5911 28.2067 31.6308 28.1549 31.6658 28.0991C31.6999 28.0442 31.7292 27.9843 31.7528 27.9234C31.7765 27.8624 31.7944 27.7985 31.8067 27.7335C31.819 27.6685 31.8247 27.6014 31.8247 27.5354C31.8247 27.4694 31.819 27.4024 31.8067 27.3364Z" fill="black"/>
<path d="M19.4574 25.9533C19.4451 25.8883 19.4271 25.8243 19.4035 25.7634C19.3799 25.7024 19.3505 25.6435 19.3165 25.5877C19.2824 25.5328 19.2427 25.48 19.1992 25.4333C19.1557 25.3866 19.1065 25.3439 19.0554 25.3074C19.0034 25.2708 18.9486 25.2393 18.8918 25.2139C18.8351 25.1885 18.7755 25.1692 18.715 25.156C18.5929 25.1296 18.4672 25.1296 18.3451 25.156C18.2846 25.1692 18.225 25.1885 18.1683 25.2139C18.1115 25.2393 18.0567 25.2708 18.0047 25.3074C17.9536 25.3439 17.9053 25.3866 17.8609 25.4333C17.8174 25.48 17.7786 25.5328 17.7436 25.5877C17.7096 25.6435 17.6802 25.7024 17.6566 25.7634C17.633 25.8243 17.615 25.8883 17.6027 25.9533C17.5904 26.0193 17.5847 26.0853 17.5847 26.1524C17.5847 26.2184 17.5904 26.2844 17.6027 26.3504C17.615 26.4154 17.633 26.4794 17.6566 26.5403C17.6802 26.6013 17.7096 26.6602 17.7436 26.716C17.7786 26.7709 17.8174 26.8227 17.8609 26.8704C17.9053 26.9171 17.9536 26.9588 18.0047 26.9963C18.0567 27.0329 18.1115 27.0644 18.1683 27.0898C18.225 27.1152 18.2846 27.1345 18.3451 27.1477C18.4066 27.1609 18.4681 27.168 18.5305 27.168C18.592 27.168 18.6544 27.1609 18.715 27.1477C18.7755 27.1345 18.8351 27.1152 18.8918 27.0898C18.9486 27.0644 19.0034 27.0329 19.0554 26.9963C19.1065 26.9588 19.1557 26.9171 19.1992 26.8704C19.2427 26.8227 19.2815 26.7709 19.3165 26.716C19.3505 26.6602 19.3799 26.6013 19.4035 26.5403C19.4271 26.4794 19.4451 26.4154 19.4574 26.3504C19.4697 26.2844 19.4754 26.2184 19.4754 26.1524C19.4754 26.0852 19.4697 26.0192 19.4574 25.9533Z" fill="black"/>
</g>
<defs>
<clipPath id="clip0">
<rect width="48.425" height="52" fill="white" transform="translate(0.162109)"/>
</clipPath>
</defs>
</svg>

<svg width="49" height="52" fill="none" xmlns="http://www.w3.org/2000/svg"><g clip-path="url(#a)" fill="#000"><path d="M17.855 31.352a1.086 1.086 0 0 0-.14-.365 1.023 1.023 0 0 0-.119-.155.91.91 0 0 0-1.03-.22.91.91 0 0 0-.307.22 1.026 1.026 0 0 0-.258.52 1.071 1.071 0 0 0 .258.916.976.976 0 0 0 .307.22.905.905 0 0 0 .361.078.921.921 0 0 0 .67-.298 1.023 1.023 0 0 0 .258-.519 1.089 1.089 0 0 0 0-.397z"/><path d="M47.641 48.89h-1.959V33.576c0-1.676-1.27-3.04-2.83-3.04h-1.616V20.517c0-1.677-1.27-3.04-2.831-3.04H35.5v-2.95a3.757 3.757 0 0 0 1.77-1.078c1.164-1.25 1.457-3.156.728-4.741L35.404 3.06a.942.942 0 0 0-.849-.566c-.36 0-.688.22-.848.566l-2.595 5.647c-.729 1.585-.436 3.49.728 4.74.507.545 1.12.904 1.77 1.08v2.949h-8.29V13.11a3.757 3.757 0 0 0 1.77-1.08c1.164-1.25 1.457-3.155.728-4.74l-2.595-5.647a.942.942 0 0 0-.848-.566c-.36 0-.69.22-.849.566l-2.595 5.647c-.729 1.585-.436 3.49.728 4.74.507.545 1.121.904 1.77 1.08v4.366h-8.29V14.53a3.76 3.76 0 0 0 1.77-1.082c1.165-1.25 1.457-3.156.728-4.741L15.042 3.06a.942.942 0 0 0-.848-.566c-.36 0-.689.22-.848.566L10.75 8.708c-.729 1.585-.436 3.49.728 4.74a3.76 3.76 0 0 0 1.77 1.083v2.946h-2.903c-1.562 0-2.832 1.363-2.832 3.04v10.018H5.898c-1.56 0-2.831 1.364-2.831 3.04V48.891h-1.96c-.521 0-.945.454-.945 1.015 0 .561.424 1.016.946 1.016H47.64c.523 0 .946-.455.946-1.016 0-.56-.423-1.015-.946-1.015zM33.178 12.013c-.591-.634-.74-1.6-.37-2.405l1.748-3.802 1.747 3.802c.37.804.221 1.77-.37 2.405a1.96 1.96 0 0 1-.431.348c-.587.35-1.306.35-1.892 0a1.95 1.95 0 0 1-.432-.348zm-10.181-1.417c-.591-.634-.74-1.6-.37-2.406l1.748-3.8 1.747 3.8c.37.805.221 1.772-.37 2.406-.13.141-.277.256-.431.348-.587.35-1.306.35-1.892 0a1.959 1.959 0 0 1-.432-.348zm-10.181 1.417c-.59-.634-.74-1.6-.37-2.405l1.748-3.802 1.747 3.802c.37.804.222 1.77-.37 2.405-.13.141-.277.256-.431.348-.587.35-1.305.35-1.892 0a1.95 1.95 0 0 1-.432-.348zm-2.472 7.496h28.06c.519 0 .94.452.94 1.009v3.188c-.416.141-.865.206-1.395.206-1.41 0-2.054-.461-2.87-1.045-.906-.649-1.934-1.385-3.918-1.385-1.983 0-3.011.736-3.918 1.385-.815.584-1.459 1.045-2.869 1.045-1.41 0-2.054-.461-2.869-1.045-.907-.649-1.935-1.385-3.918-1.385s-3.011.736-3.918 1.385c-.815.584-1.459 1.045-2.869 1.045-.53 0-.978-.065-1.395-.206v-3.188c0-.557.421-1.01.94-1.01zM43.791 48.89H4.959V39.13c.804.158 1.316.524 1.923.959.907.65 1.935 1.385 3.918 1.385s3.011-.736 3.918-1.385c.815-.584 1.459-1.044 2.869-1.044 1.41 0 2.054.46 2.869 1.044.907.65 1.935 1.385 3.918 1.385s3.011-.736 3.918-1.385c.815-.584 1.459-1.044 2.87-1.044 1.41 0 2.053.46 2.868 1.044.907.649 1.935 1.385 3.919 1.385 1.983 0 3.011-.736 3.918-1.385.607-.435 1.12-.8 1.924-.96v9.762zm0-11.816c-1.39.19-2.222.786-2.973 1.323-.815.584-1.459 1.045-2.87 1.045-1.41 0-2.053-.461-2.868-1.044-.907-.65-1.936-1.386-3.919-1.386s-3.011.736-3.918 1.386c-.815.583-1.459 1.044-2.87 1.044-1.41 0-2.053-.461-2.868-1.044-.907-.65-1.935-1.386-3.918-1.386s-3.011.736-3.918 1.386c-.815.583-1.459 1.044-2.87 1.044-1.41 0-2.053-.461-2.868-1.044-.75-.538-1.584-1.134-2.972-1.324v-3.5c0-.556.421-1.009.94-1.009h7.258c.522 0 .946-.455.946-1.016 0-.56-.424-1.015-.946-1.015H9.405v-4.736a6.46 6.46 0 0 0 1.395.143c1.983 0 3.011-.736 3.918-1.385.815-.584 1.459-1.044 2.869-1.044 1.41 0 2.054.46 2.869 1.044.907.649 1.935 1.385 3.918 1.385s3.011-.736 3.918-1.385c.815-.584 1.459-1.044 2.87-1.044 1.41 0 2.053.46 2.868 1.044.907.65 1.935 1.385 3.919 1.385.5 0 .96-.048 1.395-.143v4.736H20.698c-.522 0-.946.455-.946 1.015 0 .561.424 1.016.946 1.016h22.153c.518 0 .94.453.94 1.009v3.5z"/><path d="M9.387 46.367a1.08 1.08 0 0 0-.141-.365.973.973 0 0 0-.425-.374.906.906 0 0 0-.177-.058.915.915 0 0 0-.971.432 1.103 1.103 0 0 0-.141.365 1.081 1.081 0 0 0 .258.917c.176.19.42.298.67.298a.877.877 0 0 0 .361-.078.938.938 0 0 0 .306-.22 1.063 1.063 0 0 0 .206-.33 1.08 1.08 0 0 0 .054-.587zM19.552 43.33a1.086 1.086 0 0 0-.14-.365.92.92 0 0 0-.425-.374.873.873 0 0 0-.724 0 .916.916 0 0 0-.308.22 1.003 1.003 0 0 0-.204.33 1.077 1.077 0 0 0 .204 1.107.974.974 0 0 0 .308.219.908.908 0 0 0 .361.078.886.886 0 0 0 .525-.172.974.974 0 0 0 .35-.456 1.086 1.086 0 0 0 .053-.587zM30.486 46.367a1.08 1.08 0 0 0-.258-.52.98.98 0 0 0-.307-.219.873.873 0 0 0-.724 0 .947.947 0 0 0-.424.374 1.113 1.113 0 0 0-.141.365 1.08 1.08 0 0 0 .259.918.92.92 0 0 0 .306.219.957.957 0 0 0 .363.078.921.921 0 0 0 .786-.452 1.104 1.104 0 0 0 .16-.564c0-.067-.007-.133-.02-.199zM41.218 43.938a1.08 1.08 0 0 0-.259-.52.922.922 0 0 0-.668-.298.923.923 0 0 0-.787.452 1.08 1.08 0 0 0 0 1.128c.035.055.074.107.117.155a.983.983 0 0 0 .484.277c.062.013.123.02.186.02a.92.92 0 0 0 .786-.452 1.054 1.054 0 0 0 .16-.564c0-.066-.007-.133-.02-.198zM31.807 27.336a1.131 1.131 0 0 0-.141-.364 1.028 1.028 0 0 0-.262-.282.943.943 0 0 0-.34-.15.873.873 0 0 0-.546.057.919.919 0 0 0-.308.22 1.07 1.07 0 0 0 0 1.436.925.925 0 0 0 .854.278.95.95 0 0 0 .34-.152.925.925 0 0 0 .262-.28 1.064 1.064 0 0 0 .159-.564c0-.066-.006-.133-.018-.199zM19.457 25.953a1.086 1.086 0 0 0-.14-.365 1.01 1.01 0 0 0-.262-.28.98.98 0 0 0-.34-.152.874.874 0 0 0-.547.058.98.98 0 0 0-.307.22 1.07 1.07 0 0 0-.204.33 1.086 1.086 0 0 0 .087.952c.035.055.073.107.117.154a.98.98 0 0 0 .484.277.88.88 0 0 0 .71-.15c.052-.038.1-.08.144-.127.044-.047.082-.1.117-.154a1.104 1.104 0 0 0 .141-.366 1.078 1.078 0 0 0 0-.397z"/></g><defs><clipPath id="a"><path fill="#fff" transform="translate(.162)" d="M0 0h48.425v52H0z"/></clipPath></defs></svg>
